T: Sliabh Luachra, The
M: 2/4
L: 1/8
K: Dmaj
dA BA | dA BA | B>A B/c/d |e3 f/e/ |df Bd | Ad FD | E>D EF | D3 :|FA AB | Ad dc/B/ | AF D>E | FE ED/E/ |FA A>B | Ad dc/B/ | AF EF | D3 :|
